X:4
T:Skyehigh
M:6/8
L:1/8
Q:120
C:Matthew Richards
K:A
A2 B c2 e|d2 c B2 A|cBA BcB|AGF E2 E|A2 B c2 e|a2 f g2 e|dcB A2 G|
A2 E A2 B:|
K:D
c2 A c2 A|f2 d f2 d|c2 A c2 A|BAG BAG|c2 A c2 A|F2 A F2 A|EFA dcB|
1 A3 A3:|2 A3 A2 f|:g2 g fga|ede fdA|dcB AFA|agf efA|d2 d ede|
bge dce|fdA FEG|ABc dad|cac BaB|cde dad|cac BaB|cde fge|dcA BGF|
EFG AGF|EDC DED|1 d3 d2 e :|2 d3 d3|
